Icons/svg/network.svg

<svg xmlns="http://www.w3.org/2000/svg" width="382.8" height="321" viewBox="0 0 382.8 321"><g fill="#323232"><path d="M382.8 0h-154v187h71v104h-190v-34h82v-233h-191.8v233h79.8v49c0 8.3 7.4 15 15.7 15h220.2c8.3 0 15-6.7 15-15v-119h52.1v-187zm-352 55h130v172h-130v-172zm322 101.1h-93.1v-125.2h93.1v125.2zM94.8 75h39v30h-39zM295.8 53h39v30h-39zM56.8 118h77v30h-77zM56.8 161h77v30h-77z"/></g></svg>

<?xml version="1.0" encoding="utf-8"?>
<!-- Generator: Adobe Illustrator 18.1.1, SVG Export Plug-In . SVG Version: 6.00 Build 0)  -->
<!DOCTYPE svg PUBLIC "-//W3C//DTD SVG 1.1//EN" "http://www.w3.org/Graphics/SVG/1.1/DTD/svg11.dtd">
<svg version="1.1" id="Layer_1" xmlns="http://www.w3.org/2000/svg" xmlns:xlink="http://www.w3.org/1999/xlink" x="0px" y="0px"
	 viewBox="0 0 382.8 321" enable-background="new 0 0 382.8 321" xml:space="preserve">
<g>
	<path fill="#323232" d="M382.8,0h-154v187h71v104h-190v-34h82V24H0v233h79.8v49c0,8.3,7.4,15,15.7,15h220.2c8.3,0,15-6.7,15-15V187
		h52.1V0z M30.8,55h130v172h-130V55z M352.8,156.1h-93.1V30.9h93.1V156.1z"/>
	<rect x="94.8" y="75" fill="#323232" width="39" height="30"/>
	<rect x="295.8" y="53" fill="#323232" width="39" height="30"/>
	<rect x="56.8" y="118" fill="#323232" width="77" height="30"/>
	<rect x="56.8" y="161" fill="#323232" width="77" height="30"/>
</g>
<g>
</g>
<g>
</g>
<g>
</g>
<g>
</g>
<g>
</g>
<g>
</g>
<g>
</g>
<g>
</g>
<g>
</g>
<g>
</g>
<g>
</g>
<g>
</g>
<g>
</g>
<g>
</g>
<g>
</g>
</svg>
